!!!COM: Haydn, Franz Joseph
!!!CDT: 1732/03/31/-1809/05/31/
!!!CNT: Austrian
!!!OTL: Sonata No. 62 in E-flat major
!!!SCT: Hob. XVI:52
!!!OMV: Mvmt. 3
!!!OMD: Finale: Presto
!!!ODT: 1794///
!!!SMS: Universal Edition 1, Haydn Piano Sonatas, Vol. 4, No. 34
!!!ONB: Stich und Druck von Jos. Eberle & Co. Wien VII. Seidengasse 3-9
**kern	**kern	**dynam
*staff2	*staff1	*staff1/2
*Ipiano	*Ipiano	*Ipiano
*>[A,A,B]	*>[A,A,B]	*>[A,A,B]
*>norep[A,B]	*>norep[A,B]	*>norep[A,B]
*>A	*>A	*>A
*clefF4	*clefG2	*clefG2
*k[b-e-a-]	*k[b-e-a-]	*k[b-e-a-]
*E-:	*E-:	*E-:
*M2/4	*M2/4	*M2/4
*MM144	*MM144	*MM144
8r	8g/	p
=1	=1	=1
2r	8g/L	.
.	8g/	.
.	8g/	.
.	8g/J	.
=2	=2	=2
*^	*	*
8r	[2EE-\	(4g/	p
8E-/L	.	.	.
8E-/	.	8b-/L)	.
8E-/J	.	(8e-/J	.
=3	=3	=3	=3
8E-/L	2EE-\]	8d/L	.
8E-/	.	8f/	.
8E-/	.	8a-/	.
8E-/J	.	8d/J	.
=4	=4	=4	=4
8r	[2EE-\	8e-/L	.
8E-/L	.	8g/	.
8E-/	.	8B-/)	.
8E-/J	.	(8B-/J	.
=5	=5	=5	=5
8E-/L	2EE-\]	8A-/L	.
8E-/	.	8d/	.
8E-/	.	8f/	.
8E-/J	.	8d/J	.
=6	=6	=6	=6
8r	[2EE-\	8e-/L	.
8E-/L	.	8g/	.
8E-/	.	8B-/)	.
8E-/J	.	(8B-/J	.
=7	=7	=7	=7
8E-/L	2EE-\]	8A-/L	.
8E-/	.	8d/	.
8E-/	.	8f/	.
8E-/J	.	8d/J	.
*v	*v	*	*
=8	=8	=8
4EE-/	4e-/)	.
8r;	8r;	.
8r	8a-/	.
=9	=9	=9
2r	8a-/L	.
.	8a-/	.
.	8a-/	.
.	8a-/J	.
=10	=10	=10
*^	*	*
8r	[2FF\	(4a-/	.
8F/L	.	.	.
8F/	.	8cc/L)	.
8F/J	.	(8f/J	.
=11	=11	=11	=11
8F/L	2FF\]	8en/L	.
8F/	.	8g/	.
8F/	.	8b-/	.
8F/J	.	8e/J	.
=12	=12	=12	=12
8r	[2FF\	8f/L	.
8F/L	.	8a-/	.
8F/	.	8c/)	.
8F/J	.	(8c/J	.
=13	=13	=13	=13
8F/L	2FF\]	8B-/L	.
8F/	.	8en/	.
8F/	.	8g/	.
8F/J	.	8e/J	.
=14	=14	=14	=14
8r	[2FF\	8f/L	.
8F/L	.	8a-/	.
8F/	.	8c/)	.
8F/J	.	(8c/J	.
=15	=15	=15	=15
8F/L	2FF\]	8B-/L	.
8F/	.	8en/	.
8F/	.	8g/	.
8F/J	.	8e/J	.
*v	*v	*	*
=16	=16	=16
4FF/	4f/)	.
8r;	8r;	.
8BBB-/ 8BB-/	8r	f
=17	=17	=17
8BBB-/ 8BB-/L	4r	.
8BBB-/ 8BB-/	.	.
8BBB-/ 8BB-/	8r	.
8BBB-/ 8BB-/J	16ccc\LL	f
.	16bb-\JJ	.
=18	=18	=18
(4BBB-/ 4BB-/	16aa-\LL	.
.	16gg\	.
.	16ff\	.
.	16ee-\JJ	.
8F/L)	16dd\LL	.
.	16ee-\	.
(8AA-/J	16ff\	.
.	16dd\JJ	.
=19	=19	=19
8GG/L	16ee-\LL	.
.	16gg\	.
8BB-/	16ff\	.
.	16ee-\JJ	.
8E-/	16dd\LL	.
.	16cc\	.
8GG/J	16b-\	.
.	16ee-\JJ	.
=20	=20	=20
8AA-/L	16dd\LL	.
.	16ee-\	.
8D/	16ff\	.
.	16gg\JJ	.
8F/)	16aa-\LL	.
.	16ff\	.
(8AA-/J	16ee-\	.
.	16dd\JJ	.
=21	=21	=21
8GG/L	16ee-\LL	.
.	16gg\	.
8BB-/	16ff\	.
.	16ee-\JJ	.
8E-/	16dd\LL	.
.	16cc\	.
8GG/J	16b-\	.
.	16ee-\JJ	.
=22	=22	=22
8AA-/L	16dd\LL	.
.	16ee-\	.
8D/	16ff\	.
.	16gg\JJ	.
8F/)	16aa-\LL	.
.	16ff\	.
(8AA-/J	16ee-\	.
.	16dd\JJ	.
=23	=23	=23
8GG\L	16ee-\LL	.
.	16ff\	.
8BB-\	16gg\	.
.	16ff\JJ	.
8E-\	16ee-\LL	.
.	16dd\	.
8G\J)	16cc\	.
.	16b-\JJ	.
=24	=24	=24
(8AA-\L	16cc\LL	.
.	16ee-\	.
8C\	16ff\	.
.	16ee-\JJ	.
8F\	16dd\LL	.
.	16cc\	.
8A-\J)	16b-\	.
.	16a-\JJ	.
=25	=25	=25
8B-\L	16g/LL	.
.	16b-/	.
8B-\	16g/	.
.	16b-/JJ	.
8B-\	16f/LL	.
.	16a-/	.
8B-\J	16f/	.
.	16a-/JJ	.
=26	=26	=26
8BB-/L	16e-/LL	.
.	16g/	.
8BB-/	16e-/	.
.	16g/JJ	.
8BB-/	16d/LL	.
.	16f/	.
8BB-/J	16d/	.
.	16f/JJ	.
=27	=27	=27
8E-'\L	16e-/LL	.
.	16B-/	.
8G'\J	16e-/	.
.	16B-/JJ	.
8E-'\L	16e-/LL	.
.	16B-/	.
8G'\J	16e-/	.
.	16B-/JJ	.
=28	=28	=28
4E-\	4e-/	.
4r	8r	.
.	(8gg\	.
=29	=29	=29
2r	8aa-\L	.
.	8aan\	.
.	8bb-\	.
.	8bbn\J	.
*clefG2	*	*
=30	=30	=30
*^	*	*
8r	2e-\	8ccc\L	.
8g/L	.	&(8gg\J&))	.
8cc/	.	8r	.
&(8g/J&)	.	(8gg\	.
=31	=31	=31	=31
8r	2d\	8gg\L	.
8g/L	.	8ff\	.
8bn/	.	8aa-\	.
8g/J	.	8ff\J	.
=32	=32	=32	=32
8r	2c\	8ff\L	.
8e-/L	.	8ee-\J)	.
8g/	.	8r	.
8e-/J	.	(8gg\	.
=33	=33	=33	=33
8r	2B-\	8aa-\L	.
8e-/L	.	8aan\	.
8g/	.	8bb-\	.
8e-/J	.	8bbn\J	.
=34	=34	=34	=34
8r	2An\	[8ccc\L)	.
.	.	(dddq/	.
(8c/L	.	32ccc\LL]	f
.	.	32bbn\	.
.	.	32ccc\	.
.	.	32ddd\JJJ	.
8f/	.	4eee-\)	.
8c/J)	.	.	.
=35	=35	=35	=35
8r	2An\	16eee-\LL	.
.	.	16ddd\	.
(8c/L	.	16ccc\	.
.	.	16bb-\JJ	.
8f/	.	16aan\LL	.
.	.	16gg\	.
8c/J)	.	16ff\	.
.	.	16ee-\JJ	.
*v	*v	*	*
=36	=36	=36
(8B-/L	8dd\	.
8d/	4fff\	.
8c/	.	.
8e-/J	[8aan\	.
=37	=37	=37
8d/L	8aa\]	.
&(8f/J&))	4bb-\	.
*clefF4	*	*
(8D\L	.	.
8B-\J	[8aa-\	.
=38	=38	=38
8E-\L	8aa-\]	.
8B-\	4gg\	.
8F\	.	.
8B-\J	[8ff\	.
=39	=39	=39
8G\L	8ff\]	.
8B-\	4een\	.
8G-\	.	.
8B-\J	[8ee-\	.
=40	=40	=40
8F\L	8ee-\]	.
8B-\	4dd\	.
8En\	.	.
8B-\J	[8dd-\	.
=41	=41	=41
8En\L	8dd-\]	.
8c\	4cc\	.
8E\	.	.
8d-\J	[8b-\	.
=42	=42	=42
8F\L	8b-\]	.
8c\	4an/	.
8En\	.	.
8d-\J	[8b-\	.
=43	=43	=43
8F\L	8b-\]	.
8c\	4an/	.
8En\	.	.
8d-\J	8b-\	.
=44	=44	=44
4F\ 4c\)	8an\L	.
.	8ff\	.
4r	8ff\J	.
.	8ff\	.
=45	=45	=45
2r	8ff\L	.
.	8ff\	.
.	8ff\J	.
.	8een\ 8ff\	.
=46	=46	=46
4r	8een\ 8ff\L	.
.	8ee\ 8ff\	.
8r	8ee\ 8ff\J	.
*clefG2	*	*
8f/	8ee-\ 8ff\	.
=47	=47	=47
8g-/L	8ee-\ 8ff\L	.
8gn/	8ee-\ 8ff\	.
8a-/	8ee-\ 8ff\J	f
8an/J	8ee-\ 8ff\	.
=48	=48	=48
4.b-\	8dd\ 8ff\L	.
.	8dd\ 8ff\	.
.	8dd\ 8ff\J	.
8B-/ 8d/ 8f/	8ff\ 8bb-\ 8ddd\ 8fff\	ff
=49	=49	=49
8B-/ 8d/ 8f/L	8ff\ 8bb-\ 8ddd\ 8fff\L	.
8B-/ 8d/ 8f/	8ff\ 8bb-\ 8ddd\ 8fff\	.
8B-/ 8d/ 8f/	8ff\ 8bb-\ 8ddd\ 8fff\	.
8B-/ 8d/ 8f/J	8ff\ 8bb-\ 8ddd\ 8fff\J	.
*clefF4	*	*
=50	=50	=50
4F\ (4c\	4ee-\ (4aan\	f
8B-'\ 8d'\L)	8dd'\ 8bb-'\L)	.
8B-'\ 8d'\J	8dd'\ 8ff'\J	.
=51	=51	=51
4F\ (4c\	4ee-\ (4aan\	.
8B-'\ 8d'\L)	8dd'\ 8bb-'\L)	.
8B-'\ 8d'\J	8dd'\ 8ff'\J	.
=52	=52	=52
4F\ (4c\	4ee-\ (4aan\	.
8B-'\ 8d'\L)	8dd'\ 8bb-'\L)	.
8A-'\ 8f'\J	8dd'\ 8bbn'\J	.
=53	=53	=53
2A-\ 2f\	2dd\ 2bbn\	.
=54	=54	=54
*^	*^	*
2e-/	(4A-\	(4ccc/	2cc\	.
.	4G-\)	4bb-/)	.	.
*v	*v	*	*	*
*	*v	*v	*
=55	=55	=55
2F;\ 2e-;\	2cc;\ 2aan;\	.
=56	=56	=56
4Gn;\ 4d;\	4b-;\ 4bb-;\	.
*clefG2	*	*
4dd\	4b-\ 4ff#\	p
=57	=57	=57
2dd\	[2b-\ (2ff#\	.
=58	=58	=58
&(4ee-\&)	4b-\] 4gg\)	.
*clefF4	*	*
4E-\ 4e-\	4bn\ 4gg\	f
=59	=59	=59
*	*^	*
[2E-\ [2e-\	[2gg/	2bn\	.
=60	=60	=60	=60
2E-\_ 2e-\_	2gg/_	(8dd\L	.
.	.	8cc\	.
.	.	8ee-\	.
.	.	8dd\J	.
=61	=61	=61	=61
2E-\_ 2e-\_	4gg/]	8ff\L	.
.	.	8ee-\)	.
.	(8aa-/L	8ff\	.
.	8gg/J	8ee-\J	.
*	*v	*v	*
=62	=62	=62
2E-\] 2e-\]	8dd\ 8ff#\L	.
.	8ee-\ 8gg\	.
.	8dd\ 8ffn\	.
.	8cc\ 8ee-\J	.
=63	=63	=63
2F\ 2f\	4.b-\ 4.dd\)	.
.	8dd\ (8ff\	.
=64	=64	=64
2FF/ 2F/	8dd\ 8ff\L	.
.	8cc\ 8ee-\	.
.	8b-\ 8dd\	.
.	8an\ 8cc\J	.
=65	=65	=65
4.r	16b-\LL)	f
.	16ff\	.
.	16dd\	.
.	16b-\JJ	.
.	16f/LL	.
.	16d/JJ	.
16B-\LL	8r	.
16d\JJ	.	.
=66	=66	=66
4r	16an\LL	.
.	16ff\	.
.	16ee-\	.
.	16cc\JJ	.
8r	16a/LL	.
.	16f/JJ	.
16c\LL	8r	.
16e-\JJ	.	.
=67	=67	=67
4r	16b-\LL	.
.	16ff\	.
.	16dd\	.
.	16b-\JJ	.
8r	16f/LL	.
.	16d/JJ	.
16B-\LL	8r	.
16d\JJ	.	.
=68	=68	=68
4r	16an\LL	.
.	16ff\	.
.	16ee-\	.
.	16cc\JJ	.
8r	16a/LL	.
.	16f/JJ	.
16c\LL	8r	.
16e-\JJ	.	.
=69	=69	=69
2r	(16ff/LL	.
.	16b-/JJ	.
.	16d\LL	.
.	16b-\JJ	.
.	16gg/LL	.
.	16b-/JJ	.
.	16e-\LL	.
.	16b-\JJ	.
=70	=70	=70
2r	16aan/LL	.
.	16b-/JJ	.
.	16f\LL	.
.	16b-\JJ	.
.	16bb-/LL	.
.	16b-/JJ	.
.	16g\LL	.
.	16b-\JJ)	.
=71	=71	=71
2r	(16ff/LL	.
.	16b-/JJ	.
.	16d\LL	.
.	16b-\JJ	.
.	16gg/LL	.
.	16b-/JJ	.
.	16e-\LL	.
.	16b-\JJ	.
=72	=72	=72
2r	16aan/LL	.
.	16b-/JJ	.
.	16f\LL	.
.	16b-\JJ	.
.	16bb-/LL	.
.	16b-/JJ	.
.	16g\LL	.
.	16b-\JJ)	.
=73	=73	=73
2r	(16ddd-/LL	.
.	16dd-/JJ	.
.	16g-\LL	.
.	16b-\JJ	.
.	16bb-/LL	.
.	16b-/JJ	.
.	16g-\LL	.
.	16b-\JJ	.
=74	=74	=74
2r	16eeen/LL	.
.	16een/JJ	.
.	16g-\LL	.
.	16b-\JJ	.
.	16bb-/LL	.
.	16b-/JJ	.
.	16g-\LL	.
.	16b-\JJ)	.
=75	=75	=75
8r	16aan/LL	ff
.	16an/JJ	.
16f\LL	8r	.
16F\JJ	.	.
8r	16ff/LL	.
.	16f/JJ	.
16c\LL	8r	.
16C\JJ	.	.
=76	=76	=76
8r	16cc/LL	.
.	16c/JJ	.
16An\LL	8r	.
16AAn\JJ	.	.
8r	16an/LL	.
.	16An/JJ	.
16F\LL	8r	.
16FF\JJ	.	.
*	*clefF4	*clefF4
=77	=77	=77
4.r;	4.FFF;/	.
*clefG2	*	*
8e-/	8r	p
*	*clefG2	*clefG2
=78	=78	=78
8e-/L	4r	.
8e-/	.	.
8e-/	8r	.
8e-/J	8cc'\	.
=79	=79	=79
8e-/L	(8f/L	.
8e-/	8g-/	.
8e-/	8f'/J)	.
8e-/J	8ee-'\	.
=80	=80	=80
8e-/L	(8an/L	.
8e-/	8b-/	.
8e-/	8a/J)	.
8e-/J	8gg-'\	.
=81	=81	=81
8e-/L	(8cc\L	.
8e-/	8dd-\	.
8e-/	8cc'\J)	.
8e-/J	8aan'\	.
=82	=82	=82
8e-/L	(8ff\L	.
8e-/	8gg-\	.
8e-/	8ff'\J)	.
8e-/J	8fff'\	.
=83	=83	=83
8d/	8r	.
8r	8ddd\ 8fff\	.
8e-/	8r	.
8r	8ccc\ 8eee-\	.
=84	=84	=84
8f/	8r	.
8r	8bb-\ 8ddd\	.
8f/	8r	.
8r	8aan\ 8ccc\	.
=85	=85	=85
4B-/	8bb-\	p
.	8e-/L	.
4r	8e-/	.
.	8e-/J	.
=86	=86	=86
4r	8e-/L	.
.	8e-/	.
8r	8e-/	.
*clefF4	*	*
8C'/	8e-/J	.
=87	=87	=87
(8FF/L	8e-/L	.
8GG-/	8e-/	.
8FF'/J)	8e-/	.
8E-'\	8e-/J	.
=88	=88	=88
(8AAn/L	8e-/L	.
8BB-/	8e-/	.
8AA'/J)	8e-/	.
8G-'\	8e-/J	.
=89	=89	=89
(8C/L	8e-/L	.
8D-/	8e-/	.
8C'/J)	8e-/	.
8An'\	8e-/J	.
=90	=90	=90
(8F\L	8e-/L	.
8G-\	8e-/	.
8F'\J)	8e-/	.
8An'\	8e-/J	.
=91	=91	=91
8B-'\L	(16d/LL	f
.	16b-/	.
8BB-'\	16d/	.
.	16b-/JJ	.
8B-'\	16e-/LL	.
.	16an/	.
8BB-'\J	16e-/	.
.	16a/JJ	.
=92	=92	=92
8B-'\L	16an\LL	.
.	16ee-\	.
8BB-'\	16a\	.
.	16ee-\JJ	.
8B-'\	16b-\LL	.
.	16dd\	.
8BB-'\J	16b-\	.
.	16dd\JJ)	.
=93	=93	=93
8B-'\L	(16dd\LL	.
.	16bb-\	.
8BB-'\	16dd\	.
.	16bb-\JJ	.
8B-'\	16ee-\LL	.
.	16aan\	.
8BB-'\J	16ee-\	.
.	16aa\JJ	.
=94	=94	=94
8B-'\L	16aan\LL	.
.	16eee-\	.
8BB-'\J	16aa\	.
.	16eee-\JJ	.
4B-\	16bb-\LL	.
.	16ddd\	.
.	16bb-\	.
.	16ddd\JJ)	.
=95	=95	=95
8D'\ 8F'\ 8B-'\ 8d'\	8ff'\ 8bb-'\ 8ddd'\ 8fff'\	.
8r	8r	.
8E-'\ 8G'\ 8c'\	8gg'\ 8ccc'\ 8eee-'\	.
8r	8r	.
=96	=96	=96
8F'\ 8B-'\ 8d'\	8ff'\ 8bb-'\ 8ddd'\	.
8r	8r	.
8F'\ 8An'\ 8c'\	8cc'\ 8ee-'\ 8aan'\	.
8r	8r	.
=97	=97	=97
16B-\LL	4dd\ 4ff\ 4bb-\	ff
16An\	.	.
16B-\	.	.
16A\JJ	.	.
16B-\LL	8r	.
16A\	.	.
16B-\	8ee-\ (8gg\	.
16A\JJ	.	.
=98	=98	=98
16B-\LL	8dd\ 8ff\L	.
16An\	.	.
16B-\	8cc\ 8ee-\J	.
16A\JJ	.	.
16B-\LL	8b-\ 8dd\L	.
16A\	.	.
16B-\	8an\ 8cc\J	.
16A\JJ	.	.
=99	=99	=99
&(4B-\&)	(16b-/LL)	.
.	16an/)	.
.	16b-/	.
.	16a/JJ	.
8r	16b-/LL	.
.	16a/	.
8E-\ (8G\	16b-/	.
.	16a'/JJ	.
=100	=100	=100
8D\ 8F\L	16b-/LL	.
.	16an/	.
8E-\ 8G\	16b-/	.
.	16a/JJ	.
8D\ 8F\	16b-/LL	.
.	16a/	.
8C'\ 8E-'\J	16b-/	.
.	16a/JJ	.
=101	=101	=101
4BB-'/ 4D'/)	&(4b-'\&)	.
4BB-'\ 4D'\ 4F'\ 4B-'\	4dd'\ 4ff'\ 4bb-'\	.
=102	=102	=102
4r	4r	.
8r	8r	.
=:|!	=:|!	=:|!
*>B	*>B	*>B
8r	8f'/	p
=103	=103	=103
(2CC/ 2C/	(8A-/L	.
.	8B-/	.
.	8A-'/J)	.
.	8f'/	.
=104	=104	=104
4.BBBn/) 4.BBn/	8G/L	.
.	8A-/	.
.	&(8G'/J&)	.
(8c\	8a-/	.
=105	=105	=105
8Bn\L	8g/L	.
8c\	8a-/	.
8B\	8g/	.
8d\J	8f/J	.
=106	=106	=106
4c\)	8e-/L	.
.	&(8cc/&)	.
8r	8cc/J	.
*clefG2	*	*
(8e-/	8cc\	.
=107	=107	=107
8en/L	8cc\L	.
8f/	8cc\	.
8f#/	8cc\	.
8g/J	8cc\J	.
=108	=108	=108
*	*^	*
4.a-/)	4.r	8cc\L	.
.	.	8cc\	.
.	.	8cc\J	.
(8fn/	8dd/	8cc\	.
=109	=109	=109	=109
8f#/L	8ee-/L	8cc\L	.
8g/	8een/	8cc\	.
8a-/	8ff/	8cc\	.
8an/J	8ff#/J	8cc\J	.
=110	=110	=110	=110
4.b-\)	&(4.gg/&)	8cc\L	.
.	.	8cc\	.
.	.	8cc\J	.
(8g/	8een/	8cc\	.
=111	=111	=111	=111
8a-/L	8ff/L	8cc\L	<
8en/	8gg/	8cc\	.
8f/	8aa-/	8cc\	.
8g/J	8bb-/J	8cc\J	.
=112	=112	=112	=112
4.a-/)	&(4.ccc/&)	8cc\L	.
.	.	8cc\	.
.	.	8cc\	.
(8f/	8aa-/	8cc\J	.
=113	=113	=113	=113
4.g/)	&(4.bb-/&)	8cc\L	.
.	.	8cc\	.
.	.	8cc\	.
(8en/	8gg/	8cc\J	.
=114	=114	=114	=114
[2f/)	&([2aa-/&)	8cc\L	.
.	.	8cc\	.
.	.	8cc\	.
.	.	8cc\J	.
=115	=115	=115	=115
2f/]	2aa-/]	8dd-\L	.
.	.	8dd-\	.
.	.	8dd-\	.
.	.	8dd-\J	.
=116	=116	=116	=116
(4en/	2gg/	8dd-\L	.
.	.	8dd-\	.
4e-/	.	8cc\	.
.	.	8cc\J	.
=117	=117	=117	=117
4dn/	2ff/	8cc\L	.
.	.	8cc\	.
4d-/	.	8bn\	.
.	.	8b\J	.
*clefF4	*v	*v	*
=118	=118	=118
(16c\LL)	4cc\ &(4een\&)	f
16Bn\	.	.
16c\	.	.
16B\JJ	.	.
16c\LL	8r	.
16B\	.	.
16c\	8aa-\ 8ccc\	.
16B\JJ	.	.
=119	=119	=119
16c\LL	8gg\ 8bb-\L	.
16Bn\	.	.
16c\	8aa-\ 8ccc\	.
16B\JJ	.	.
16c\LL	8gg\ 8bb-\	.
16B\	.	.
16c\	8ff\ 8aa-\J	.
16B\JJ	.	.
=120	=120	=120
16c\LL	8een\ &(8gg\&)	>
16Bn\	.	.
16c\	8r	.
16B\JJ	.	.
16c\LL	8r	.
16B\	.	.
*	*clefF4	*clefF4
16c\	8AA-/ 8C/	p
16B\JJ	.	.
=121	=121	=121
16c\LL	8GG/ 8BB-/L	.
16Bn\	.	.
16c\	8FF/ 8AA-/	.
16B\JJ	.	.
16c\LL	8EEn/ 8GG/	.
16B\	.	.
16c\	8DD/ 8FF/J	.
16B\JJ	.	.
=122	=122	=122
4c\)	4CC/ &(4EEn/&)	.
4r	8r	.
*	*clefG2	*clefG2
.	8ccc\	<
=123	=123	=123
2r	8ccc\L	.
.	8ccc\	.
.	8ccc\	.
.	8ccc\J	.
=124	=124	=124
*^	*	*
8c/L	4A-\	(16ddd-\LL	f
.	.	16ccc\	.
8e-/	.	16bb-\	.
.	.	16ccc\JJ	.
8c/	4A-\	8eee-\L	.
&(8e-/J&)	.	8aa-\J	.
=125	=125	=125	=125
8d-/L	4A-\ 4B-\	8gg\L	.
8e-/	.	8bb-\	.
8d-/	4A-\ 4B-\	8ddd-\	.
8e-/J	.	8gg\J	.
=126	=126	=126	=126
8c/L	4A-\	8aa-\L	.
8e-/	.	8ccc\	.
8c/	4A-\	8ee-\)	.
8e-/J	.	(8ee-\J	.
=127	=127	=127	=127
8d-/L	4A-\ 4B-\	8dd-\L	.
8e-/	.	8gg\	.
8d-/	4A-\ 4B-\	8bb-\	.
8e-/J	.	8gg\J	.
=128	=128	=128	=128
4c/	4A-\	(16aa-\LL)	.
.	.	16bb-\	.
.	.	16ccc\	.
.	.	16bb-\JJ	.
4r	4r	16aa-\LL	.
.	.	16gg\	.
.	.	16ff\	.
.	.	16ee-\JJ	.
*v	*v	*	*
=129	=129	=129
4E-\ 4G\ 4B-\ 4d-\	16dd-\LL	.
.	16cc\	.
.	16b-\	.
.	16a-\JJ	.
4r	16g/LL	.
.	16f/	.
.	16e-/	.
.	16d-/JJ	.
=130	=130	=130
4AA-\ 4A-\	16c/LL	.
.	16d-/	.
.	16e-/	.
.	16d-/JJ	.
8r	16c/LL	.
.	(16cc/)	.
8A-'\ 8c'\	16b-/	.
.	16a-/JJ	.
=131	=131	=131
4B-\ 4d-\	16g/LL	.
.	16a-/	.
.	16b-/	.
.	16a-/JJ	.
8r	16g\LL	.
.	(16ff\)	.
8G'\ 8B-'\	16ee-\	.
.	16dd-\JJ	.
=132	=132	=132
4A-\ 4c\	16cc\LL	.
.	16dd-\	.
.	16ee-\	.
.	16dd-\JJ	.
8r	16cc\LL)	.
.	(16ccc\	.
8A-'\ 8c'\	16bb-\	.
.	16aa-\JJ	.
=133	=133	=133
4B-\ 4d-\	16gg\LL	.
.	16aa-\	.
.	16bb-\	.
.	16aa-\JJ	.
8r	16gg\LL)	.
.	(16fff\	.
8G'\ 8B-'\	16eee-\	.
.	16ddd-\JJ	.
=134	=134	=134
4A-\ 4c\	16ccc\LL	.
.	16ddd-\	.
.	16eee-\	.
.	16ddd-\JJ	.
8r	16ccc\LL	.
.	16bb-\	.
8B-'\ 8d-'\	16aa-\	.
.	16gg\JJ	.
=135	=135	=135
4c\ 4e-\	16aa-\LL	.
.	16bb-\	.
.	16ccc\	.
.	16bb-\JJ	.
8r	16aa-\LL	.
.	16gg\	.
*clefG2	*	*
8c-'/ 8a-'/	16ff\	.
.	16ee-\JJ	.
=136	=136	=136
4.B-/ 4.a-/	16ddn\LL	.
.	16ee-\	.
.	16ff\	.
.	16ee-\JJ	.
.	16dd\LL	.
.	16aa-\	.
8c-'/ 8a-'/	16ff\	.
.	16ee-\JJ	.
=137	=137	=137
4.B-/ 4.a-/	16dd\LL	.
.	16ee-\	.
.	16ff\	.
.	16ee-\JJ	.
.	16dd\LL	.
.	16aa-\	.
8c-'/ 8a-'/	16ff\	.
.	16ee-\JJ	.
=138	=138	=138
[2B-/ 2a-/	16dd\LL	.
.	16ff\	.
.	16ee-\	.
.	16gg\JJ	.
.	16ff\LL	.
.	16aa-\	.
.	16gg\	.
.	16bb-\JJ	.
=139	=139	=139
2B-/] 2d/	16aa-\LL	.
.	16gg\	.
.	16ff\	.
.	16ee-\JJ	.
.	16dd\LL	.
.	16cc\	.
.	16b-\	.
.	16a-\JJ	.
*clefF4	*	*
=140	=140	=140
4E-\ 4G\ 4B-\ 4e-\	16g/LL)	.
.	(16b-/	.
.	16cc/	.
.	16b-/JJ	.
4r	16a-/LL	.
.	16g/	.
.	16f/	.
.	16e-/JJ	.
=141	=141	=141
4BB-\ 4A-\	16d/LL	.
.	16e-/	.
.	16f/	.
.	16e-/JJ	.
4r	16d/LL	.
.	16c/	.
.	16B-/	.
.	16A-/JJ	.
=142	=142	=142
4EE-/ 4E-/	16G/LL	.
.	16A-/	.
.	16B-/	.
.	16A-/JJ	.
8r	16G/LL	.
.	(16g/)	.
8E-'\ 8G'\	16f/	.
.	16e-/JJ	.
=143	=143	=143
4F\ 4A-\	16d/LL	.
.	16e-/	.
.	16f/	.
.	16e-/JJ	.
8r	16d/LL	.
.	(16cc/)	.
8D'\ 8F'\	16b-/	.
.	16a-/JJ	.
=144	=144	=144
4E-\ 4G\	16g/LL	.
.	16a-/	.
.	16b-/	.
.	16a-/JJ	.
8r	16g\LL	.
.	(16gg\)	.
*clefG2	*	*
8e-'/ 8g'/	16ff\	.
.	16ee-\JJ	.
=145	=145	=145
4f/ 4a-/	16dd\LL	.
.	16ee-\	.
.	16ff\	.
.	16ee-\JJ	.
4r	16dd\LL	.
.	16ccc\	.
.	16aa-\	.
.	16ff\JJ	.
=146	=146	=146
2r	(16gg/LL)	.
.	16ee-/JJ	mf
.	16dd\LL	.
.	16ee-\JJ	.
.	16gg/LL	.
.	16ee-/JJ	.
.	16dd\LL	.
.	16ee-\JJ	.
=147	=147	=147
2r	16aa-/LL	.
.	16ee-/JJ	.
.	16cc\LL	.
.	16ee-\JJ	.
.	16aa-/LL	.
.	16ee-/JJ	.
.	16cc\LL	.
.	16ee-\JJ	.
=148	=148	=148
2r	16bb-/LL	.
.	16ee-/JJ	.
.	16g\LL	.
.	16ee-\JJ	.
.	16bb-/LL	.
.	16ee-/JJ	.
.	16g\LL	.
.	16ee-\JJ	.
=149	=149	=149
2r	16ccc/LL	.
.	16ee-/JJ	.
.	16a-\LL	.
.	16ee-\JJ)	.
.	(16bb-/LL	.
.	16ee-/JJ	.
.	16g-\LL	.
.	16ee-\JJ	.
*clefF4	*	*
=150	=150	=150
2r	16aan/LL	.
.	16ee-/JJ	.
.	16f\LL	.
.	16ee-\JJ	.
.	16bb-/LL	.
.	16ee-/JJ	.
.	16g-\LL	.
.	16ee-\JJ	.
=151	=151	=151
2r	16aan/LL	.
.	16ee-/JJ	.
.	16f\LL	.
.	16ee-\JJ)	.
.	(16ccc/LL	.
.	16ee-/JJ	.
.	16an\LL	.
.	16ee-\JJ	.
=152	=152	=152
2r	16ff/LL	.
.	16dd/JJ	.
.	16b-\LL	.
.	16dd\JJ	.
.	16gg/LL	.
.	16ee-/JJ	.
.	16b-\LL	.
.	16ee-\JJ	.
=153	=153	=153
2r	16aa-/LL	>
.	16ff/JJ	.
.	16b-\LL	.
.	16ff\JJ)	.
.	(16ff/LL	.
.	16dd/JJ	.
.	16b-\LL	.
.	16dd\JJ	.
=154	=154	=154
2r	16gg/LL	p
.	16b-/JJ	.
.	16e-\LL	.
.	16b-\JJ	.
.	16ff/LL	.
.	16a-/JJ	.
.	16e-\LL	.
.	16a-\JJ	.
=155	=155	=155
2r	16ee-/LL	.
.	16g/JJ	.
.	16e-\LL	<
.	16g\JJ)	.
.	(16gg/LL	.
.	16b-/JJ	.
.	16e-\LL	.
.	16b-\JJ	.
=156	=156	=156
2r	16aa-/LL	.
.	16cc/JJ	.
.	16e-\LL	.
.	16cc\JJ	.
.	16gg/LL	.
.	16b-/JJ	.
.	16e-\LL	.
.	16b-\JJ	.
=157	=157	=157
2r	16ff/LL	.
.	16a-/JJ	.
.	16e-\LL	.
.	16a-\JJ	.
.	(16aa-/LL)	.
.	16cc/JJ	.
.	16e-\LL	.
.	16cc\JJ	.
=158	=158	=158
2r	16gg/LL	.
.	16b-/JJ	.
.	16e-\LL	.
.	16b-\JJ	.
.	16ff/LL	.
.	16a-/JJ	.
.	16e-\LL	.
.	16a-\JJ	.
=159	=159	=159
2r	16ee-/LL	.
.	16g/JJ	.
.	16e-\LL	.
.	16g\JJ)	.
.	(16bb-/LL	.
.	16gg/JJ	<
.	16ee-\LL	.
.	16gg\JJ	.
=160	=160	=160
2r	16bb-/LL	.
.	16ff/JJ	.
.	16dd\LL	.
.	16ff\JJ	.
.	16bb-/LL	.
.	16ee-/JJ	.
.	16cc\LL	.
.	16ee-\JJ	.
=161	=161	=161
2r	16bb-/LL	.
.	16dd/JJ	.
.	16b-\LL	.
.	16dd\JJ	.
.	(16bb-/LL)	.
.	16gg/JJ	.
.	16ee-\LL	.
.	16gg\JJ	.
=162	=162	=162
2r	16bb-/LL	.
.	16ff/JJ	.
.	16dd\LL	.
.	16ff\JJ	.
.	16bb-/LL	.
.	16ee-/JJ	.
.	16cc\LL	.
.	16ee-\JJ	.
=163	=163	=163
2r	16bb-/LL	.
.	16dd/JJ	.
.	16b-\LL	.
.	16dd\JJ	f
.	(16bb-/LL)	.
.	16dd/JJ	.
.	16a-\LL	.
.	16dd\JJ	.
=164	=164	=164
2r	16bb-/LL	.
.	16dd/JJ	.
.	16g\LL	.
.	16dd\JJ	.
.	16bb-/LL	.
.	16dd/JJ	.
.	16g\LL	.
.	16dd\JJ	.
=165	=165	=165
2r	16ccc/LL	.
.	16ee-/JJ	.
.	16f#\LL	.
.	16ee-\JJ)	.
.	(16ccc/LL	.
.	16ee-/JJ	.
.	16f#\LL	.
.	16ee-\JJ	.
=166	=166	=166
2r	16bbn/LL	.
.	16dd/JJ	.
.	16g\LL	.
.	16dd\JJ	.
.	(16bb/LL)	.
.	16dd/JJ	.
.	16g\LL	.
.	16dd\JJ	.
=167	=167	=167
2r	16ccc/LL	.
.	16ee-/JJ	.
.	16f#\LL	.
.	16ee-\JJ	.
.	(16ccc/LL)	.
.	16ee-/JJ	.
.	16f#\LL	.
.	16ee-\JJ	.
=168	=168	=168
8r	(16bbn/LL)	ff
.	16bn/JJ	.
16g\LL	8r	<
16G\JJ	.	.
8r	16gg/LL	.
.	16g/JJ	.
16d\LL	8r	.
16D\JJ	.	.
=169	=169	=169
8r	16dd/LL	.
.	16d/JJ	.
16Bn\LL	8r	.
16BBn\JJ	.	.
8r	16bn/LL	.
.	16Bn/JJ	.
16G\LL	8r	.
16GG\JJ	.	.
*	*clefF4	*clefF4
=170	=170	=170
4.GG;/	4.GGG;/)	.
*	*clefG2	*clefG2
8r	8g/	.
=171	=171	=171
2r	8g/L	mf
.	8g/	.
.	8g/J	.
.	8g/ 8a-/	.
=172	=172	=172
4r	8g/ 8a-/L	.
.	8g/ 8a-/	.
8r	8g/ 8a-/J	.
(8F\	8f/ 8a-/	.
=173	=173	=173
8e-\L	8f/ 8a-/L	.
8d\	8f/ 8a-/	.
8d-\	8f/ 8a-/	.
8c\J	8f/ 8a-/J	.
=174	=174	=174
4Bn\)	4f/ 4g/	.
4r	8r	.
.	8cc\	.
=175	=175	=175
2r	8cc\L	.
.	8cc\	.
.	8cc\J	.
.	8cc\ 8dd-\	.
=176	=176	=176
4r	8cc\ 8dd-\L	.
.	8cc\ 8dd-\	.
8r	8cc\ 8dd-\J	.
(8E-\	8b-\ 8dd-\	f
=177	=177	=177
8F-\L	8b-\ 8dd-\L	.
8Fn\	8b-\ 8dd-\	.
8G-\	8b-\ 8dd-\	.
8Gn\J	8b-\ 8dd-\J	.
=178	=178	=178
4A-\)	8a-\ 8cc\L	.
.	8a-\ 8cc\	.
8r	8a-\ 8cc\J	ff
8A-\ 8c\ 8e-\	8ee-\ 8aa-\ 8ccc\	.
=179	=179	=179
8A-\ 8c\ 8e-\L	8ee-\ 8aa-\ 8ccc\L	.
8A-\ 8c\ 8e-\	8ee-\ 8aa-\ 8ccc\	.
8A-\ 8c\ 8e-\	8ee-\ 8aa-\ 8ccc\	.
8A-\ 8c\ 8e-\J	8ee-\ 8aa-\ 8ccc\J	.
=180	=180	=180
(4B-\ [4e-\	(4dd-\ 4gg\	.
8c'\) 8e-'\]	8cc'\) 8aa-'\	.
8r	8ccc\ 8eee-\	p
=181	=181	=181
2r	8ccc\ 8eee-\L	.
.	8ccc\ 8eee-\	.
.	8ccc\ 8eee-\	.
.	8ccc\ 8eee-\J	.
*clefG2	*	*
=182	=182	=182
(4ee-\	4gg\ (4bb-\	p
8a-'/)	8aa-'\ 8ccc'\)	.
8r	8aa-\ 8ccc\	.
=183	=183	=183
2r	8aa-\ 8ccc\L	.
.	8aa-\ 8ccc\	.
.	8aa-\ 8ccc\	.
.	8aa-\ 8ccc\J	.
=184	=184	=184
(4cc\	4een\ (4gg\	.
8f'/)	&(8ff'\&) 8aa-'\)	.
8r	8r	.
=185	=185	=185
4r;	4r;	.
8r	8r	.
*clefF4	*	*
(8f\	8ff\ 8aa-\	.
=186	=186	=186
8en\L	8ff\ 8aa-\L	.
8e-\	8ff\ 8aa-\	.
8d\	8ff\ 8aa-\	.
8d-\J	8ff\ 8aa-\J	.
=187	=187	=187
8c\L	4ff\ 4aa-\	.
8Bn\	.	.
8c\)	8een\ &(8gg\L&)	.
(8e-\J	8ee-\ 8gg-\J	.
=188	=188	=188
8dn\L	8ee-\ 8gg-\L	.
8d-\	8ee-\ 8gg-\	.
8c\	8ee-\ 8gg-\	.
8c-\J	8ee-\ 8gg-\J	.
=189	=189	=189
8B-\L	4ee-\ 4gg-\	.
8An\J	.	.
8B-\)	8ddn\ &(8ff\&)	.
*clefG2	*	*
8b-\ 8dd-\	8bb-\	.
=190	=190	=190
8b-\ 8dd-\L	8aan\L	mf
8b-\ 8dd-\	8aa-\	.
8b-\ 8dd-\	8gg\	.
8b-\ 8dd-\J	8gg-\J	.
=191	=191	=191
4b-\ 4dd-\	8ff\L	.
.	8een\	.
8a-\ &(8cc\L&)	&(8ff\&)	.
8a-\ 8cc-\J	(8aa-\J	<
=192	=192	=192
8a-\ 8cc-\L	8ggn\L	.
8a-\ 8cc-\	8gg-\	.
8a-\ 8cc-\	8ff\	.
8a-\ 8cc-\J	8ff-\J	.
=193	=193	=193
4a-\ 4cc-\	8ee-\L	.
.	8ddn\	.
8g/ &(8b-/&)	8ee-\J)	.
8r	(8eee-'\	.
=194	=194	=194
2r	8ddd'\L	.
.	8ddd-'\	.
.	8ccc'\	.
.	8ccc-'\J	.
=195	=195	=195
2cn;/ 2e-;/	2bb-;\)	f
=196	=196	=196
2c;/ 2e-;/ 2f;/ 2an;/	2cc;\ 2ee-;\ 2ff;\ 2aan;\	.
=197	=197	=197
2r	4r	.
.	8r	.
.	(8aa-'\	p
=198	=198	=198
2r	8gg'\L	.
.	8gg-'\	.
.	8ff'\	.
.	8ff-\J)	.
=199	=199	=199
4.B-;/ 4.f;/ 4.a-;/	(4ee-;\	.
.	8dd\)	.
8r	(8ccc'\	f
=200	=200	=200
2r	8bbn'\L	.
.	8bb-'\	.
.	8aan'\	.
.	8aa-'\J	.
=201	=201	=201
2r	8gg'\L	<
.	8gg-'\	.
.	8ff'\	.
.	8ff-'\J)	.
=202	=202	=202
[2B-;/ [2f;/ [2a-;/	2ee-;\	ff
=203	=203	=203
.	(ddq/LL	.
.	ee-q/	.
.	ffq/	.
.	ee-q/	.
.	ddq/J	.
.	ffq/	.
.	ee-q/	.
.	ddq/J	.
4.B-;/] 4.f;/] 4.a-;/]	4.dd;\)	.
8r	8r	.
=204	=204	=204
2r	8g/L	p
.	8g/	.
.	8g/	.
.	8g/J	.
*clefF4	*	*
=205	=205	=205
*^	*	*
8r	[2EE-\	(4g/	p
8E-/L	.	.	.
8E-/	.	8b-/L)	.
8E-/J	.	(8e-/J	.
=206	=206	=206	=206
8E-/L	2EE-\]	8d/L	.
8E-/	.	8f/	.
8E-/	.	8a-/	.
8E-/J	.	8d/J	.
=207	=207	=207	=207
8r	[2EE-\	8e-/L	.
8E-/L	.	8g/	.
8E-/	.	8B-/)	.
8E-/J	.	(8B-/J	.
=208	=208	=208	=208
8E-/L	2EE-\]	8A-/L	.
8E-/	.	8d/	.
8E-/	.	8f/	.
8E-/J	.	8d/J	.
=209	=209	=209	=209
8r	[2EE-\	8e-/L	.
8E-/L	.	8g/	.
8E-/	.	8B-/)	.
8E-/J	.	(8B-/J	.
=210	=210	=210	=210
8E-/L	2EE-\]	8A-/L	.
8E-/	.	8d/	.
8E-/	.	8f/	.
8E-/J	.	8d/J	.
*v	*v	*	*
=211	=211	=211
4EE-/	4e-/)	.
8r;	8r;	.
8r	8a-/	.
=212	=212	=212
2r	8a-/L	.
.	8a-/	.
.	8a-/	.
.	8a-/J	.
=213	=213	=213
*^	*	*
8r	[2FF\	(4a-/	.
8F/L	.	.	.
8F/	.	8cc/L)	.
8F/J	.	8f/J	.
=214	=214	=214	=214
*	*	*^	*
8r	2FF\]	(8en/L	2d-\	.
8G/L	.	8g/	.	.
8G/	.	8b-/	.	.
8G/J	.	8e/J	.	.
=215	=215	=215	=215	=215
8r	[2FF\	8f/L	4c\	.
8A-/L	.	8a-/	.	.
8A-/	.	8c/)	4r	.
8A-/J	.	8c/J	.	.
=216	=216	=216	=216	=216
8r	2FF\]	(8en/L	2d-\	.
8G/L	.	8g/	.	.
8G/	.	8b-/	.	.
8G/J	.	8e/J	.	.
=217	=217	=217	=217	=217
8r	[2FF\	8f/L	4c\	.
8A-/L	.	8a-/	.	.
8A-/	.	8c/)	4r	.
8A-/J	.	8c/J	.	.
=218	=218	=218	=218	=218
8r	2FF\]	(8en/L	2d-\	.
8G/L	.	8g/	.	.
8G/	.	8b-/	.	.
8G/J	.	8e/J	.	.
*v	*v	*	*	*
*	*v	*v	*
=219	=219	=219
4FF/ 4A-/	4c/ 4f/)	.
8r;	8r;	.
8BBB-/ 8BB-/	8r	f
=220	=220	=220
8BBB-/ 8BB-/L	4r	.
8BBB-/ 8BB-/	.	.
8BBB-/ 8BB-/	8r	.
8BBB-/ 8BB-/J	16ccc\LL	f
.	16bb-\JJ	.
=221	=221	=221
(4BBB-/ 4BB-/	16aa-\LL	.
.	16gg\	.
.	16ff\	.
.	16ee-\JJ	.
8F/L)	16dd\LL	.
.	16ee-\	.
(8AA-/J	16ff\	.
.	16dd\JJ	.
=222	=222	=222
8GG/L	16ee-\LL	.
.	16gg\	.
8BB-/	16ff\	.
.	16ee-\JJ	.
8E-/	16dd\LL	.
.	16cc\	.
8GG/J	16b-\	.
.	16ee-\JJ	.
=223	=223	=223
8AA-/L	16dd\LL	.
.	16ee-\	.
8D/	16ff\	.
.	16gg\JJ	.
8F/)	16aa-\LL	.
.	16ff\	.
(8AA-/J	16ee-\	.
.	16dd\JJ	.
=224	=224	=224
8GG/L	16ee-\LL	.
.	16gg\	.
8BB-/	16ff\	.
.	16ee-\JJ	.
8E-/	16dd\LL	.
.	16cc\	.
8GG/J	16b-\	.
.	16ee-\JJ	.
=225	=225	=225
8AA-/L	16dd\LL	.
.	16ee-\	.
8D/	16ff\	.
.	16gg\JJ	.
8F/)	16aa-\LL	.
.	16ff\	.
(8AA-/J	16ee-\	.
.	16dd\JJ	.
=226	=226	=226
8GG\L	16ee-\LL	.
.	16ff\	.
8BB-\	16gg\	.
.	16ff\JJ	.
8E-\	16ee-\LL	.
.	16dd\	.
8G\J)	16cc\	.
.	16b-\JJ	.
=227	=227	=227
(8AA-\L	16cc\LL	.
.	16ee-\	.
8C\	16ff\	.
.	16ee-\JJ	.
8F\	16dd\LL	.
.	16cc\	.
8A-\J)	16b-\	.
.	16a-\JJ	.
=228	=228	=228
8B-\L	16g/LL	.
.	16b-/	.
8B-\	16g/	.
.	16b-/JJ	.
8B-\	16f/LL	.
.	16a-/	.
8B-\J	16f/	.
.	16a-/JJ	.
=229	=229	=229
8BB-/L	16e-/LL	.
.	16g/	.
8BB-/	16e-/	.
.	16g/JJ	.
8BB-/	16d/LL	.
.	16f/	.
8BB-/J	16d/	.
.	16f/JJ	.
=230	=230	=230
8E-'\L	16e-/LL	.
.	16B-/	.
8G'\J	16e-/	.
.	16B-/JJ	.
8E-'\L	16e-/LL	.
.	16B-/	.
8G'\J	16e-/	.
.	16B-/JJ	.
=231	=231	=231
4E-\	4e-/	.
4r	8r	.
.	(8gg\	.
=232	=232	=232
2r	8aa-\L	.
.	8aan\	.
.	8bb-\	.
.	8bbn\J	.
*clefG2	*	*
=233	=233	=233
*^	*	*
8r	2e-\	8ccc\L	.
8g/L	.	&(8gg\J&))	.
8cc/	.	8r	.
&(8g/J&)	.	(8gg\	.
=234	=234	=234	=234
8r	2d\	8gg\L	.
8g/L	.	8ff\	.
8bn/	.	8aa-\	.
&(8g/J&)	.	8ff\J	.
=235	=235	=235	=235
8r	2c\	8ff\L	.
8e-/L	.	&(8ee-\J&))	.
8g/	.	8r	.
&(8e-/J&)	.	(8ee-\	.
=236	=236	=236	=236
8r	2B-\	8ff-\L	<
8d-/L	.	8ffn\	.
8e-/	.	8gg-\	.
&(8d-/J&)	.	8ggn\J	.
*v	*v	*	*
*clefF4	*	*
=237	=237	=237
*^	*	*
8r	2A-\	8aa-\L	.
8c/L	.	&(8ee-\J&))	.
8e-/	.	8r	.
&(8c/J&)	.	(8ee-\	.
=238	=238	=238	=238
8r	2G\	8ee-\L	.
8B-/L	.	8dd-\	.
8e-/	.	8ff\	.
&(8B-/J&)	.	8dd-\J	.
*v	*v	*	*
=239	=239	=239
8A-\L	8cc\)	f
8e-\	(4ccc\	.
8G\	.	.
8en\J	[8bb-\	.
=240	=240	=240
8F\L	8bb-\]	.
8f\	4aa-\	.
8G\	.	.
8B-\J	[8gg\	.
=241	=241	=241
8A-\L	8gg\]	.
8c\	4ff\	.
8An\	.	.
8f\J	[8ee-\	.
=242	=242	=242
8B-\L	8ee-\]	.
8f\	4dd\	.
8c\	.	.
8e-\J	[8cc\	.
*clefG2	*	*
=243	=243	=243
8d/L	8cc\]	.
8f/	4b-\	.
8e-/	.	.
8g-/J	[8an/	.
=244	=244	=244
8d/L	8a/]	.
8f/	4b-/	.
8e-/	.	.
8g-/J	[8an/	.
=245	=245	=245
8d/L	8a/]	.
8f/	4b-/	.
8e-/	.	.
8g-/J	8an/	.
=246	=246	=246
4d/ &(4f/&)	(8b-\L)	.
.	8bb-\)	.
4r	8bb-\J	.
.	8bb-\	.
=247	=247	=247
2r	8bb-\L	.
.	8bb-\	.
.	8bb-\J	.
.	8aan\ 8bb-\	.
=248	=248	=248
4r	8aan\ 8bb-\L	.
.	8aa\ 8bb-\	.
8r	8aa\ 8bb-\J	.
(8b-\	8aa-\ 8bb-\	.
=249	=249	=249
8cc-\L	8aa-\ 8bb-\L	.
8ccn\	8aa-\ 8bb-\	.
8dd-\	8aa-\ 8bb-\J	.
8ddn\J	8aa-\ 8bb-\	.
=250	=250	=250
4.ee-\)	8gg\ 8bb-\L	.
.	8gg\ 8bb-\	.
.	8gg\ 8bb-\J	ff
*clefF4	*	*
8E-\ 8G\ 8B-\ 8e-\	8b-\ 8ee-\ 8gg\	.
=251	=251	=251
8E-\ 8G\ 8B-\ 8e-\L	8b-\ 8ee-\ 8gg\L	.
8E-\ 8G\ 8B-\ 8e-\	8b-\ 8ee-\ 8gg\	.
8E-\ 8G\ 8B-\ 8e-\	8b-\ 8ee-\ 8gg\	.
8E-\ 8G\ 8B-\ 8e-\J	8b-\ 8ee-\ 8gg\J	f
=252	=252	=252
4F\ 4A-\ [4B-\ (4d\	4a-\ [4b-\ (4dd\	.
8G'\ 8B-'\] 8e-'\)	8g'\ 8b-'\] 8ee-'\)	.
8r	8ee-\ 8gg\	.
=253	=253	=253
4B-\ (4f\	4dd\ 4ff\ (4aa-\	f
8e-'\ 8g'\)	8ee-'\ 8gg'\)	.
8r	8gg\ 8bb-\	.
=254	=254	=254
4B-\ (4f\	4ff\ 4aa-\ (4ddd\	.
8e-'\ 8g'\)	8gg\ 8eee-\)	.
*clefG2	*	*
8d-/ 8b-/	8gg\ 8eeen\	.
=255	=255	=255
[2d-/ 2b-/	2gg\ 2eeen\	.
=256	=256	=256
*^	*^	*
2a-/	(4d-\]	(4fff/	2ff\	.
.	4c-\)	4eee-/)	.	.
*v	*v	*	*	*
*	*v	*v	*
=257	=257	=257
2B-;/ 2a-;/	2ff;\ 2ddd;\	.
=258	=258	=258
4cn;/ 4g;/	4ee-;\ 4eee-;\	.
4gg\	4ee-\ 4bbn\	p
=259	=259	=259
2gg\	[2ee-\ (2bbn\	.
=260	=260	=260
&(4aa-\&)	4ee-\] 4ccc\)	.
4A-/ 4a-/	4een\ 4ccc\	f
=261	=261	=261
*	*^	*
[2A-/ [2a-/	[2ccc/	2een\	.
=262	=262	=262	=262
2A-/_ 2a-/_	2ccc/_	8gg\L	.
.	.	8ff\	.
.	.	8aa-\	.
.	.	8gg\J	.
=263	=263	=263	=263
2A-/_ 2d/ 2a-/_	4ccc/]	8bb-\L	.
.	.	8aa-\	.
.	(8ddd-/L	8bb-\	.
.	8ccc/J	8aa-\J	.
*	*v	*v	*
=264	=264	=264
2A-/] 2a-/]	8gg\ 8bbn\L	.
.	8aa-\ 8ccc\	.
.	8gg\ 8bb-\	.
.	8ff\ 8aa-\J	.
=265	=265	=265
[2B-/ [2b-/	4.ee-\ 4.gg\)	.
.	8gg\ (8bb-\	.
=266	=266	=266
2B-/] 2b-/]	8gg\ 8bb-\L	.
.	8ff\ 8aa-\	.
.	8ee-\ 8gg\	.
.	8dd\ 8ff\J	.
=267	=267	=267
4r	16ee-\LL)	f
.	16gg\	.
.	16ee-\	.
.	16b-\JJ	.
8r	16g/LL	.
.	16e-/JJ	.
*clefF4	*	*
16E-\LL	8r	.
16e-\JJ	.	.
=268	=268	=268
4r	16dd\LL	.
.	16aa-\	.
.	16ff\	.
.	16dd\JJ	.
8r	16b-/LL	.
.	16a-/JJ	.
16d\LL	8r	.
16f\JJ	.	.
=269	=269	=269
4r	(16ee-\LL	.
.	16gg\	.
.	16ee-\	.
.	16b-\JJ	.
8r	16g/LL	.
.	16e-/JJ	.
16E-\LL	8r	.
16e-\JJ	.	.
=270	=270	=270
4r	16dd\LL	.
.	16aa-\	.
.	16ff\	.
.	16dd\JJ	.
8r	16b-/LL)	.
.	16a-/JJ	.
16d\LL	8r	.
16f\JJ	.	.
=271	=271	=271
2r	(16bb-/LL	mf
.	16ee-/JJ	.
.	16g\LL	.
.	16ee-\JJ	.
.	16ccc/LL	.
.	16ee-/JJ	.
.	16a-\LL	.
.	16ee-\JJ	.
=272	=272	=272
2r	16ddd/LL	.
.	16ee-/JJ	.
.	16b-\LL	.
.	16ee-\JJ	.
.	16eee-/LL	.
.	16ee-/JJ	.
.	16cc\LL	.
.	16ee-\JJ)	.
=273	=273	=273
2r	(16bb-/LL	.
.	16ee-/JJ	.
.	16g\LL	.
.	16ee-\JJ	.
.	16ccc/LL	.
.	16ee-/JJ	.
.	16a-\LL	.
.	16ee-\JJ	.
=274	=274	=274
2r	16ddd/LL	.
.	16ee-/JJ	.
.	16b-\LL	.
.	16ee-\JJ	.
.	16eee-/LL	.
.	16ee-/JJ	.
.	16cc\LL	.
.	16ee-\JJ)	.
=275	=275	=275
2r	(16ddd-/LL	<
.	16ee-/JJ	.
.	16g\LL	.
.	16ee-\JJ	.
.	16ccc/LL	.
.	16ee-/JJ	.
.	16a-\LL	.
.	16ee-\JJ	.
=276	=276	=276
2r	16bb-/LL	.
.	16cc/JJ	.
.	16en\LL	.
.	16cc\JJ	.
.	16aa-/LL	.
.	16cc/JJ	.
.	16f\LL	.
.	16cc\JJ)	.
=277	=277	=277
2r	(16een/LL	f
.	16cc/JJ	.
.	16g\LL	.
.	16cc\JJ	.
.	16ff/LL	.
.	16cc/JJ	.
.	16a-\LL	.
.	16cc\JJ	.
=278	=278	=278
2r	16ccc/LL	.
.	16ee-/JJ	.
.	16an\LL	.
.	16ee-\JJ	.
.	16eee-/LL	.
.	16ee-/JJ	.
.	16a\LL	.
.	16ee-\JJ)	.
=279	=279	=279
4r	(16ddd/LL	ff
.	16dd/JJ	.
.	16b-\LL	.
.	16B-\JJ	.
8r	16bb-/LL	.
.	16b-/JJ	.
16f\LL	8r	.
16F\JJ	.	.
=280	=280	=280
8r	16ff/LL	.
.	16f/JJ	.
16d\LL	8r	.
16D\JJ	.	.
8r	16dd/LL	.
.	16d/JJ	.
16B-\LL	8r	.
16BB-\JJ	.	.
*	*clefF4	*clefF4
=281	=281	=281
4.BB-;/	4.BBB-;/)	.
8A-\	8r	p
=282	=282	=282
8A-\L	4r	.
8A-\	.	.
8A-\	8r	.
*	*clefG2	*clefG2
8A-\J	8f'/	.
=283	=283	=283
8A-\L	(8B-/L	.
8A-\	8c-/	.
8A-\	8B-'/J)	.
8A-\J	8a-'/	f
=284	=284	=284
8A-\L	(8d/L	.
8A-\	8e-/	.
8A-\	8d'/J)	.
8A-\J	8cc-'\	f
=285	=285	=285
8A-\L	(8f/L	.
8A-\	8g-/	.
8A-\	8f/J)	f
8A-\J	8ddn'\	.
=286	=286	=286
8A-\L	(8b-\L	.
8A-\	8cc-\	.
8A-\	8b-'\J)	.
8A-\J	8bb-'\	f
=287	=287	=287
8G\	8r	.
8r	8gg\ 8bb-\	.
8A-\	8r	.
8r	8ff\ 8aa-\	.
=288	=288	=288
8B-\	8r	.
8r	8ee-\ 8gg\	.
8BB-/	8r	.
8r	8dd\ 8ff\	.
=289	=289	=289
4E-\	8ee-\	.
.	8a-/L	p
4r	8a-/	.
.	8a-/J	.
=290	=290	=290
4r	8a-/L	.
.	8a-/	.
8r	8a-/	.
8F'\	8a-/J	.
=291	=291	=291
(8BB-/L	[2a-/	.
8C-/	.	.
8BB-'/J)	.	.
8A-'\	.	.
=292	=292	=292
(8D\L	2a-/_	.
8E-\	.	.
8D'\J)	.	.
8c-'\	.	.
=293	=293	=293
(8F\L	2a-/_	<
8G-\	.	.
8F'\J)	.	.
8d'\	.	.
=294	=294	=294
(8B-\L	2a-/]	.
8c-\	.	.
8B-'\J)	.	.
8d'\	.	.
=295	=295	=295
8e-'\L	16g\LL	.
.	16ee-\	.
8E-'\	16g\	.
.	16ee-\JJ	.
8e-'\	16a-\LL	.
.	16dd\	.
8E-'\J	16a-\	.
.	16dd\JJ	.
=296	=296	=296
8e-'\L	16dd\LL	.
.	16aa-\	.
8E-'\	16dd\	.
.	16aa-\JJ	.
8e-'\	16ee-\LL	.
.	16gg\	.
8E-'\J	16ee-\	.
.	16gg\JJ	.
=297	=297	=297
8e-'\L	(16aa-\LL	.
.	16ccc\	.
8E-'\	16aa-\	.
.	16ccc\JJ	.
8e-'\	16gg\LL	.
.	16bb-\	.
8E-'\J	16gg\	.
.	16bb-\JJ	.
=298	=298	=298
8e-'\L	16aa-\LL	.
.	16ddd\	.
8E-'\	16aa-\	.
.	16ddd\JJ	.
8e-'\	16gg\LL	.
.	16eee-\	.
8E-'\J	16gg\	.
.	16eee-\JJ	.
=299	=299	=299
4A-'\ 4e-'\	4aa-'\ 4ccc'\)	.
4r	4r	.
=300	=300	=300
4BB-'\ 4B-'\	4f'/ 4a-'/ 4dd'/	.
4r	4r	.
=301	=301	=301
16e-\LL	4g\ 4b-\ 4ee-\	ff
16d\	.	.
16e-\	.	.
16d\JJ	.	.
16e-\LL	8r	.
16d\	.	.
16e-\	8aa-\ (8ccc\	.
16d\JJ	.	.
=302	=302	=302
16e-\LL	8gg\ 8bb-\L	.
16d\	.	.
16e-\	8ff\ 8aa-\	.
16d\JJ	.	.
16e-\LL	8ee-\ 8gg\	.
16d\	.	.
16e-\	8dd\ 8ff\J	.
16d\JJ	.	.
=303	=303	=303
&(4e-\&)	16ee-\LL)	.
.	16dd\	.
.	16ee-\	.
.	16dd\JJ	.
8r	16ee-\LL	.
.	16dd\	.
8A-\ (8c\	16ee-\	.
.	16dd\JJ	.
=304	=304	=304
8G\ 8B-\L	16ee-\LL	.
.	16dd\	.
8A-\ 8c\	16ee-\	.
.	16dd\JJ	.
8G\ 8B-\	16ee-\LL	.
.	16dd\	.
8F\ 8A-\J	16ee-\	.
.	16dd\JJ	.
=305	=305	=305
4E-'\ 4G'\)	4ee-'\	.
4r	4r	.
=306	=306	=306
4EE-'/ 4GG'/ 4BB-'/ 4E-'/	4gg'\ 4bb-'\ 4eee-'\	.
4r	4r	.
=307	=307	=307
4EE-'/ 4GG'/ 4BB-'/ 4E-'/	4G'/ 4B-'/ 4e-'/	.
4r	4r	.
==	==	==
*-	*-	*-
!!!ENC: Craig Stuart Sapp
!!!END: 2008/07/08/
